X: 89
T:Fisherman's Island, The
T:Reavy's Reel No. 9
M:C|
L:1/8
C:Ed Reavy
R:Reel
K:D
DEFA d2cd|BA^GB AFDF|GEED EFGA|(3Bcd ed cAAg|!
fd~d2 ecAc|dcdB AGFD|EFGA (3Bcd ed|1cAGE FGEF:|2cAGE FDDg|!
|:fd~d2 AF~F2|DFAd f2ef|gece bece|dfed cAGE|!
DF~F2 Adfd|Bg~g2 edcB|Adfa gbed|1cAGE FDDg:|2cAGE FGEF|]!
